modules/linea-weather/icons/weather-waxing-cresent.svg

<svg xmlns="http://www.w3.org/2000/svg" width="64" height="64" viewBox="0 0 64 64"><circle fill="none" stroke="#000" stroke-width="2" stroke-miterlimit="10" cx="32" cy="32" r="31"/><path fill="none" stroke="#000" stroke-width="2" stroke-miterlimit="10" d="M23 2c13.243 3.528 22 15.646 22 30 0 14.355-8.756 26.473-22 30m7-3H17m20-6H9m33-6H5m39-6H2m43-6H1m44-6H1m43-6H2m39-6H5m32-6H9m21-6H17"/></svg>

<svg xmlns="http://www.w3.org/2000/svg" width="64" height="64" viewBox="0 0 64 64"><circle fill="none" stroke="#000" stroke-width="2" stroke-miterlimit="10" cx="32" cy="32" r="31"/><path fill="none" stroke="#000" stroke-width="2" stroke-miterlimit="10" d="M23 2c13.243 3.528 22 15.646 22 30 0 14.355-8.756 26.473-22 30M30 59H17M37 53H9M42 47H5M44 41H2M45 35H1M45 29H1M44 23H2M41 17H5M37 11H9M30 5H17"/></svg>
